X: 37
T:Margaret Anne Robertson (Scottish Waltz)
M:3/4
L:1/4
R:40 bar Waltz
K:A
C/B,/|A,>C E|C>B, A,|DFA|E2 d|c>BA|c>BA|BGE|.D.C.B,|!
A,>C E/C/|C>B, A,|DFA|E2 d|c>B A/E/|c3/2 d/4c/4 B|A3-|A>|!
e/ c/d/|ecA|a2A|g2A|f>e c/d/|ecA|a>e c|B e^d|e>e c/d/|!
ece|ag=g|f^ga|e>cA|A,>CE|A>c e|d>cB|A2|!
c/d/|ece|ag=g|f^ga|e>cA|A,>CE|A>ce|d>cB|A2||
